X:64
T:Felton Lonnin'
Z:Jack Campin, http://www.campin.me.uk/
S:Northumbrian Minstrelsy
M:6/8
L:1/8
K:G
d|e2c dBG|TB2G  GBd|e2c dBG|Tc2A  Acd|\
  e2c dBG| B2G  GAB|cec BdB| cAA  Ac:|
d|efg gfe| d<gB GBd|efg gfe| e<aA Acd|\
  efg gfe| def  gdB|cac BgB| cAA  Ac:|

